X:1
T:Beautiful Home Above
T:Beautiful Home Above
T:James Calvin Bushey
T:John Harrison Tenney, 1871
T:Public Domain Courtesy of the Cyber Hymnal™
C:James Calvin Bushey
Z:Public Domain
Z:Courtesy of the Cyber Hymnal™
%%score ( 1 2 ) ( 3 4 )
L:1/8
Q:1/4=100
M:4/4
K:C
V:1 treble 
V:2 treble 
V:3 bass 
V:4 bass 
V:1
 ([CE][DF]) | [EG]2 [EG]2 [Ge]3 [Ec] | [Ac]2 ([GB][FA]) [EG]2 ([CE][DF]) | %3
w: 1.~There *|is a home, a|peace- ful * home, A *|
w: 2.~No *|night shall dim that|glor- ious * home, For *|
w: 3.~With *|palms of vic- tory|in their * hands They *|
 [EG]2 [EG]2 [Gc]2 ([FB][Ec]) | [Gd]6 ([CE][DF]) | [EG]2 [EG]2 [Ge]3 [Ec] | %6
w: home of joy and *|love; And *|they that bear the|
w: Je- sus is the *|light; And *|mourn- ing pil- grims|
w: with the ran- somed *|sing; “All *|praise to Him who|
 [Ac]2 ([GB][FA]) [EG]2 [EG]2 | [FA]2 [Fd]2 [Ec]2 [DB]2 | [Ec]6 ||"^Refrain" [EG]2 | %10
w: cross be- * low Shall|wear the crown a-|bove.|My|
w: here be- * low Shall|there be clad in|white.||
w: washed us * white, Our|Sav- ior, God and|king!”||
 e4 G2 ([Ec][FA]) | G6 [Gc]2 | [Gd][Gd] [Gd]2 [Gd]2 (cd) | [Ge]6 [Ec]2 | ([FA]4 [Ac]2) ([GB][FA]) | %15
w: home, sweet home, *|* My|beau- ti- ful home a- *|bove, My|home, * sweet *|
w: |||||
w: |||||
 [EG-]4 [Ge]2 [Gc]2 | [Fd][Fd] [Fd]2 [Ec]2 [DB]2 | [Ec]6 |] %18
w: home, * My|beau- ti- ful home a-|bove!|
w: |||
w: |||
V:2
 x2 | x8 | x8 | x8 | x8 | x8 | x8 | x8 | x6 || x2 | G2 (3GGG x4 | (E2 F2 E2) x2 | x6 G2 | x8 | x8 | %15
 x8 | x8 | x6 |] %18
V:3
 [C,G,]2 | [C,G,]2 [C,C]2 [C,C]3 [C,C] | [F,C]2 [F,C]2 [C,C]2 [C,G,]2 | %3
w: ~|~ ~ ~ ~|~ ~ ~ ~|
 [C,G,]2 [C,C]2 [E,C]2 ([D,G,][C,C]) | [G,B,]6 [C,G,]2 | [C,G,]2 [C,C]2 [C,C]3 [C,C] | %6
w: ~ ~ ~ ~ *|~ ~|~ ~ ~ ~|
 [F,C]2 [F,C]2 [C,C]2 [C,C]2 | [F,C]2 [F,A,]2 G,2 [G,,G,]2 | [C,G,]6 || [C,C]2 | %10
w: ~ ~ ~ ~|~ ~ ~ ~|~|My|
 [C,C]2 (3[C,C][C,C][C,C] [C,C]2 [C,C]2 | [C,C]2 [B,,D]2 [C,C]2 [E,C]2 | %12
w: home, beau- ti- ful home, sweet|home of love, My|
 [G,B,][G,B,] [G,B,]2 [G,B,][G,B,] (A,B,) | [C,C]2 [C,C]2 [C,C]2 [C,C]2 | %14
w: beau- ti- ful, beau- ti- ful *|home a- bove, My|
 [C,C]2 (3[C,C][C,C][C,C] [C,C]2 [C,C]2 | [C,C]2 [C,C]2 [C,C]2 [E,C]2 | %16
w: home, beau- ti- ful home of|joy and love, My|
 [F,A,][F,A,] [F,A,]2 G,2 [G,,G,]2 | [C,G,]6 |] %18
w: beau- ti- ful home a-|bove!|
V:4
 x2 | x8 | x8 | x8 | x8 | x8 | x8 | x4 G,2 x2 | x6 || x2 | x8 | x8 | x6 G,2 | x8 | x8 | x8 | %16
 x4 G,2 x2 | x6 |] %18

